X:1
T:O Sole Mio
T:O Sole Mio
T:E. di Capua
C:E. di Capua
L:1/8
M:4/4
K:G
V:1 treble 
V:1
|:"G" z2 d2 c2 B2 | A4 G4 | G2 A2 B2 G2 |"Am" F4 E4 | z2 F2 G2 A2 |"D7" F2 E2 E4- | E2 F2 G2 A2 | %7
w: Che bel- la|co- sa|na jur- na- ta'e|so- le,|n'ar- i- a~se-|re- na dop-|* po na tem-|
w: Quan- no fa|not- te~e'o|so- le se ne|scen- ne,|me ve- ne|qua- * se|'na mal- in- cun-|
"G" (E2 D2) D4 |"G" z2 d2 c2 B2 | A4 G4 | G2 A2 B2 G2 |"Am"{G} F4 E4 | z2 c2 B2 A2 | %13
w: pes- * ta!|Pe' ll'ar- ia|fres- ca|pa- re gi`a na|fes- ta,|Che bel- la|
w: i- * a;|sot- to'a fe-|nes- ta|toi- a res- tar-|ri- a|quan- no fa|
"G" d2 B2 A2 G2 |"D7" A6"^rit..." B2 |"G" A4{BA} G4 |] z2 !fermata!g2 !fermata!g2 !fermata!f2 | %17
w: co- sa na jur-|na- ta'e|so- le.|Ma n'a- tu|
w: not- te~e'o so- le|se ne|scen- ne.||
"G" (f2 d2) d4 | z2 f2 f2 e2 |"Am"{e} c8 | z2 f2 f2 e2 |"Am"{e} c4 c4 |"D7" z2 A2 B2 c2 |"G" d8 | %24
w: so- * le|cchi`u bello, oje|ne'.|O so- le|mi- o|sta 'nfron- te~a|te!|
w: |||||||
 z4 z2 d2 |"Cm" _e4 e4 | z2 c2 g3 _e |"G" d4 d4 | z2 B2 A2 G2 |"D7" d8 | z2 B2{AB} A3 F | %31
w: O|so- le,|O so- le|mi- o|sta 'nfron- te~a|te!|sta 'nfron- te~a|
w: |||||||
"G" G8 :|33 z2 B2 A2 G2 |"D7" d4 d4 | z2 d2 [db]3 [ca] |"G" [Bg]8 |] %36
w: te!|O so- le|mi- o|sta 'nfron- te~a|te!|
w: |||||

